X: 100233
M: C|
L: 1/8
K: E
(uBA) |\
fB ((3BAB) gB ((3BAB) | aB ((3BAB) gB ((3BAB) | (fB) (gB) (aB) (fe) | (de)fg f2 de |\
fB ((3BAB) gB ((3BAB) | aB ((3BAB) gB ((3BAB) | (fB) (gB) (aB) (gB) | fedf e2 :|


